X: 1
T:Irish National Anthem
M:4/4
L:1/8
Q:120
C:Peadar Carney
K:D
A2 |F2 DF A3 A |Bc de f3 e |d2 B2 A2 F2 |
A3 G E2 A2 |F2 DF A3 A |Bc de f3 d |c2 c2 B2 B2 |
A6 A2 |G3 F GE FG |A3 B A2 d2 |c2 B2 c2 B2 |
A3 G E2 A2 |F2 DF A3 A |Bc de f2 dB |Ad df e3 d |
d6 A2||d3 e f2 d2 |A6 A2 |B3 B G2 B2 |
A6 A2 |d4 c4 |B6 cd |e3 f e2 B2 |
c4 cB BA |d3 e f2 d2 |A6 A2 |B3 B G2 B2 |
A6 B2 |c2 z2 c2 z c |c2 c2 B2 B2 |A6 A2 |
G3 F GE FG |A3 B A2 d2 |c2 B2 c2 B2 |A2 G2 E2 AG |
F2 DF A3 A |Bc de f2 dB |Ad df e3 d |d6 z2||
